!!!COM: Music21
!!!OTL: Alalá
!!!OMV: pezas_alalas_alala_alala-partitura.musicxml
**kern
*I"Bagpipes
*I'Bag
*clefG^2
*k[]
*M3/4
=1
!LO:TX:a:t=Lento
*MM48
!LO:TX:a:t=[quarter]=48
2r
8ccL
8ddJ
=
4.ee
8ff
8ddL
8eeJ
=
8ddL
8ccJ
8ddL
8eeJ
[4ff
=
8ffL]
8ggJ
8eeL
8ggJ
8ffL
8ddJ
=
4.ee;
8cc
8dd
=
4.ee
8ff
8ddL
8eeJ
=
8ddL
8ccJ
8ffL
8ggJ
[4ee
=
8eeL]
8ccJ
8ddL
8eeJ
4dd
=
2.cc;
==
*-
